svgs/regular/train-tram.svg

<svg xmlns="http://www.w3.org/2000/svg" viewBox="0 0 448 512"><!--! Font Awesome Pro 6.6.0 by @fontawesome - https://fontawesome.com License - https://fontawesome.com/license (Commercial License) Copyright 2024 Fonticons, Inc. --><path d="M55.5 63c7.6-9.5 19.1-15 31.2-15L200 48l0 48-40 0c-53 0-96 43-96 96l0 160c0 26 10.3 49.6 27.2 66.9L39 471c-9.4 9.4-9.4 24.6 0 33.9s24.6 9.4 33.9 0l60.6-60.6c8.4 2.4 17.2 3.7 26.4 3.7l128 0c9.2 0 18-1.3 26.4-3.7L375 505c9.4 9.4 24.6 9.4 33.9 0s9.4-24.6 0-33.9l-52.1-52.1C373.7 401.6 384 378 384 352l0-160c0-53-43-96-96-96l-40 0 0-48 113.2 0c12.2 0 23.6 5.5 31.2 15l12.8 16c8.3 10.4 23.4 12 33.7 3.7s12-23.4 3.8-33.7L430 33C413.3 12.2 388 0 361.2 0L86.8 0C60 0 34.7 12.2 18 33L5.3 49C-3 59.4-1.3 74.5 9 82.7S34.5 89.3 42.7 79L55.5 63zM160 144l128 0c26.5 0 48 21.5 48 48l0 48-224 0 0-48c0-26.5 21.5-48 48-48zM112 288l224 0 0 64c0 26.5-21.5 48-48 48l-128 0c-26.5 0-48-21.5-48-48l0-64zm72 64a24 24 0 1 0 -48 0 24 24 0 1 0 48 0zm104 24a24 24 0 1 0 0-48 24 24 0 1 0 0 48z"/></svg>

<svg xmlns="http://www.w3.org/2000/svg" viewBox="0 0 448 512"><!--! Font Awesome Pro 6.4.2 by @fontawesome - https://fontawesome.com License - https://fontawesome.com/license (Commercial License) Copyright 2023 Fonticons, Inc. --><path d="M55.5 63c7.6-9.5 19.1-15 31.2-15H200V96H160c-53 0-96 43-96 96V352c0 26 10.3 49.6 27.2 66.9L39 471c-9.4 9.4-9.4 24.6 0 33.9s24.6 9.4 33.9 0l60.6-60.6c8.4 2.4 17.2 3.7 26.4 3.7H288c9.2 0 18-1.3 26.4-3.7L375 505c9.4 9.4 24.6 9.4 33.9 0s9.4-24.6 0-33.9l-52.1-52.1C373.7 401.6 384 378 384 352V192c0-53-43-96-96-96H248V48H361.2c12.2 0 23.6 5.5 31.2 15l12.8 16c8.3 10.4 23.4 12 33.7 3.7s12-23.4 3.8-33.7L430 33C413.3 12.2 388 0 361.2 0H86.8C60 0 34.7 12.2 18 33L5.3 49C-3 59.4-1.3 74.5 9 82.7S34.5 89.3 42.7 79L55.5 63zM160 144H288c26.5 0 48 21.5 48 48v48H112V192c0-26.5 21.5-48 48-48zM112 288H336v64c0 26.5-21.5 48-48 48H160c-26.5 0-48-21.5-48-48V288zm72 64a24 24 0 1 0 -48 0 24 24 0 1 0 48 0zm104 24a24 24 0 1 0 0-48 24 24 0 1 0 0 48z"/></svg>
